usr/share/icons/biglinux-icons-material-dark/symbolic/status/nm-device-wwan-symbolic.svg

<svg width="16" height="16" version="1.1" xmlns="http://www.w3.org/2000/svg">
 <circle cx="8" cy="6" r="1" fill="#dedede"/>
 <path d="m2.3574 0.35742a8.0001 8 0 0 0-2.3574 5.6426 8.0001 8 0 0 0 2.3574 5.6426l0.69336-0.69336a7.0001 7 0 0 1-2.0508-4.9492 7.0001 7 0 0 1 2.0508-4.9492l-0.69336-0.69336zm2.1191 2.1191a4.9999 4.9999 0 0 0-1.4766 3.5234 4.9999 4.9999 0 0 0 1.4766 3.5234l0.69531-0.69531a3.9999 3.9999 0 0 1-1.1719-2.8281 3.9999 3.9999 0 0 1 1.1719-2.8281l-0.69531-0.69531z" fill="#dedede"/>
 <path d="m13.643 0.35742a8.0001 8 0 0 1 2.3574 5.6426 8.0001 8 0 0 1-2.3574 5.6426l-0.69336-0.69336a7.0001 7 0 0 0 2.0508-4.9492 7.0001 7 0 0 0-2.0508-4.9492zm-2.1191 2.1191a4.9999 4.9999 0 0 1 1.4766 3.5234 4.9999 4.9999 0 0 1-1.4766 3.5234l-0.69531-0.69531a3.9999 3.9999 0 0 0 1.1719-2.8281 3.9999 3.9999 0 0 0-1.1719-2.8281z" fill="#dedede"/>
 <rect x="7.5" y="9" width="1" height="7" rx="0" ry="0" fill="#dedede" stroke-width=".93541"/>
</svg>

<svg xmlns="http://www.w3.org/2000/svg" width="16" height="16">
<circle cx="8" cy="6" r="1" fill="#363636"/>
<path fill="#363636" d="M2.357.357A8 8 0 0 0 0 6a8 8 0 0 0 2.357 5.643l.694-.694A7 7 0 0 1 1 6a7 7 0 0 1 2.05-4.95zm2.12 2.12A5 5 0 0 0 3 6a5 5 0 0 0 1.476 3.523l.696-.695A4 4 0 0 1 4 6a4 4 0 0 1 1.172-2.828zm9.166-2.12A8 8 0 0 1 16 6a8 8 0 0 1-2.357 5.643l-.693-.694A7 7 0 0 0 15 6a7 7 0 0 0-2.05-4.95zm-2.12 2.12A5 5 0 0 1 13.002 6a5 5 0 0 1-1.477 3.523l-.695-.695A4 4 0 0 0 12 6a4 4 0 0 0-1.171-2.828z"/>
<rect width="1" height="7" x="7.5" y="9" fill="#363636" rx="0" ry="0"/>
</svg>
